src/lib/packages/icons/src/assets/line/award-check.svg

<svg width="24" height="24" viewBox="0 0 24 24" fill="none" xmlns="http://www.w3.org/2000/svg">
<path d="M18.8959 7.43796L18.5769 7.11996C18.5149 7.05696 18.479 6.973 18.479 6.884V6.436C18.479 4.829 17.1709 3.52096 15.5639 3.52096H15.1159C15.0279 3.52096 14.9418 3.48492 14.8798 3.42392L14.562 3.10495C13.427 1.96895 11.5779 1.96695 10.4389 3.10495L10.121 3.42294C10.059 3.48494 9.97296 3.52096 9.88496 3.52096H9.43696C7.82996 3.52096 6.52192 4.829 6.52192 6.436V6.884C6.52192 6.973 6.48702 7.05699 6.42402 7.11899L6.10493 7.43893C4.96893 8.57493 4.96893 10.425 6.10493 11.562L6.42402 11.88C6.48602 11.943 6.52192 12.0269 6.52192 12.1159V12.5639C6.52192 13.7889 7.28293 14.835 8.35493 15.266L6.779 20.7939C6.701 21.0689 6.78597 21.365 6.99897 21.557C7.20997 21.748 7.51298 21.803 7.77998 21.696L10.548 20.587C11.808 20.085 13.1939 20.085 14.4519 20.587L17.2219 21.697C17.3129 21.733 17.4079 21.7509 17.5009 21.7509C17.6839 21.7509 17.8629 21.685 18.0029 21.558C18.2159 21.366 18.3008 21.071 18.2228 20.795L16.6469 15.2669C17.7189 14.8359 18.4799 13.7899 18.4799 12.5649V12.1169C18.4799 12.0279 18.5148 11.9439 18.5778 11.8819L18.8969 11.563C18.8969 11.563 18.8969 11.563 18.8969 11.562C20.0319 10.425 20.0319 8.57496 18.8959 7.43796ZM15.008 19.193C13.393 18.549 11.6119 18.548 9.98994 19.193L8.63984 19.734L9.85298 15.479H9.88301C9.97101 15.479 10.0568 15.515 10.1188 15.576L10.437 15.895C11.005 16.463 11.751 16.748 12.499 16.748C13.245 16.748 13.992 16.464 14.561 15.895L14.8789 15.577C14.9409 15.515 15.0269 15.479 15.1149 15.479H15.145L16.3579 19.734L15.008 19.193ZM17.8359 10.5009L17.517 10.8199C17.17 11.1659 16.9799 11.6269 16.9799 12.1159V12.5639C16.9799 13.3439 16.3449 13.979 15.5649 13.979H15.1169C14.6339 13.979 14.161 14.1749 13.82 14.5169L13.5019 14.8349C12.9669 15.3689 12.0349 15.3689 11.4999 14.8349L11.1818 14.516C10.8408 14.175 10.369 13.979 9.88496 13.979H9.43696C8.65696 13.979 8.02192 13.3439 8.02192 12.5639V12.1159C8.02192 11.6259 7.83206 11.1659 7.48506 10.8189L7.16596 10.5009C6.61496 9.94894 6.61496 9.04999 7.16596 8.49899L7.48506 8.18002C7.83206 7.83402 8.02192 7.373 8.02192 6.884V6.436C8.02192 5.656 8.65696 5.02096 9.43696 5.02096H9.88496C10.368 5.02096 10.8408 4.825 11.1818 4.483L11.4999 4.16501C12.0349 3.63101 12.9669 3.63101 13.5019 4.16501L13.82 4.48398C14.161 4.82498 14.6329 5.02096 15.1169 5.02096H15.5649C16.3449 5.02096 16.9799 5.656 16.9799 6.436V6.884C16.9799 7.374 17.17 7.834 17.517 8.181L17.8359 8.49899C18.3869 9.05099 18.3869 9.94894 17.8359 10.5009ZM15.03 7.63595C15.323 7.92895 15.323 8.40399 15.03 8.69699L12.363 11.364C12.222 11.505 12.032 11.584 11.833 11.584C11.634 11.584 11.4429 11.505 11.3029 11.364L9.96992 10.031C9.67692 9.73797 9.67692 9.26294 9.96992 8.96994C10.2639 8.67594 10.739 8.67794 11.031 8.96994L11.8339 9.77292L13.9709 7.63595C14.2629 7.34295 14.737 7.34295 15.03 7.63595Z" fill="currentColor"/>
</svg>

<svg xmlns="http://www.w3.org/2000/svg" width="24" height="24" fill="none"><path fill="currentColor" d="m18.896 7.438-.32-.318a.336.336 0 0 1-.097-.236v-.448a2.919 2.919 0 0 0-2.915-2.915h-.448a.34.34 0 0 1-.236-.097l-.318-.319a2.918 2.918 0 0 0-4.123 0l-.318.318a.336.336 0 0 1-.236.098h-.448a2.919 2.919 0 0 0-2.915 2.915v.448a.328.328 0 0 1-.098.235l-.32.32a2.92 2.92 0 0 0 0 4.123l.32.318a.336.336 0 0 1 .098.236v.448c0 1.225.76 2.271 1.833 2.702l-1.576 5.528a.751.751 0 0 0 1.001.902l2.768-1.109a5.248 5.248 0 0 1 3.904 0l2.77 1.11a.745.745 0 0 0 .781-.139.75.75 0 0 0 .22-.763l-1.576-5.528a2.916 2.916 0 0 0 1.833-2.702v-.448c0-.09.035-.173.098-.235l.319-.319v-.001a2.922 2.922 0 0 0-.001-4.124Zm-3.888 11.755a6.753 6.753 0 0 0-5.018 0l-1.35.541 1.213-4.255h.03a.34.34 0 0 1 .236.097l.318.319a2.906 2.906 0 0 0 2.062.853c.746 0 1.493-.284 2.062-.853l.318-.318a.336.336 0 0 1 .236-.098h.03l1.213 4.255-1.35-.541Zm2.828-8.692-.319.319a1.818 1.818 0 0 0-.537 1.296v.448c0 .78-.635 1.415-1.415 1.415h-.448c-.483 0-.956.196-1.297.538l-.318.318c-.535.534-1.467.534-2.002 0l-.318-.319a1.845 1.845 0 0 0-1.297-.537h-.448c-.78 0-1.415-.635-1.415-1.415v-.448c0-.49-.19-.95-.537-1.297l-.319-.318a1.419 1.419 0 0 1 0-2.002l.32-.319c.346-.346.536-.807.536-1.296v-.448c0-.78.635-1.415 1.415-1.415h.448c.483 0 .956-.196 1.297-.538l.318-.318c.535-.534 1.467-.534 2.002 0l.318.319c.341.341.813.537 1.297.537h.448c.78 0 1.415.635 1.415 1.415v.448c0 .49.19.95.537 1.297l.319.318c.55.552.55 1.45 0 2.002ZM15.03 7.636a.75.75 0 0 1 0 1.061l-2.667 2.667a.749.749 0 0 1-1.06 0L9.97 10.031a.75.75 0 1 1 1.06-1.061l.803.803 2.137-2.137a.748.748 0 0 1 1.059 0Z"/></svg>
